src/assets/icons/Header__burger.svg

<svg width="18" height="17" viewBox="0 0 18 17" fill="none" xmlns="http://www.w3.org/2000/svg">
<path d="M0 0.5H18V2.5H0V0.5ZM0 7.5H18V9.5H0V7.5ZM0 14.5H18V16.5H0V14.5Z" fill="white"/>
</svg>

<svg width="18" height="17" fill="none" xmlns="http://www.w3.org/2000/svg"><path d="M0 .5h18v2H0v-2Zm0 7h18v2H0v-2Zm0 7h18v2H0v-2Z" fill="#fff"/></svg>
